dist/svg/object-based/catalog_32.svg

<?xml version="1.0" encoding="iso-8859-1"?>
<!-- Generator: Adobe Illustrator 20.0.0, SVG Export Plug-In . SVG Version: 6.00 Build 0)  -->
<svg version="1.1" id="Layer_1" xmlns="http://www.w3.org/2000/svg" xmlns:xlink="http://www.w3.org/1999/xlink" x="0px" y="0px"
	 viewBox="0 0 32 32" style="enable-background:new 0 0 32 32;" xml:space="preserve">
<path d="M21,3c-2,0-4,1-5,2c-1-1-3-2-5-2H3v24h8c2,0,4,1,5,2c1-1,3-2,5-2h8V3H21z M16,26.484C14.657,25.649,12.869,25,11,25H5V5h6
	c1.359,0,2.891,0.719,3.586,1.414L16,7.829V26.484z M26,20h-7v-1h7V20z M26,17h-7v-1h7V17z M26,14h-7v-1h7V14z M26,11h-7v-1h7V11z"
	/>
</svg>

<svg xmlns="http://www.w3.org/2000/svg" viewBox="0 0 32 32"><path d="M21 3c-2 0-4 1-5 2-1-1-3-2-5-2H3v24h8c2 0 4 1 5 2 1-1 3-2 5-2h8V3h-8zm-5 23.484C14.657 25.65 12.87 25 11 25H5V5h6c1.36 0 2.89.72 3.586 1.414L16 7.83v18.654zM26 20h-7v-1h7v1zm0-3h-7v-1h7v1zm0-3h-7v-1h7v1zm0-3h-7v-1h7v1z"/></svg>
